uploads/birdman.svg

<svg height="110" viewBox="0 0 506 110" width="506" xmlns="http://www.w3.org/2000/svg"><path d="m67.4 138c20.4 0 29.85-12 29.85-28.35 0-10.35-6.3-19.65-14.7-22.35v-.75c4.65-2.4 12.9-9.6 12.9-22.5 0-13.05-9-25.5-30.15-25.5h-28.8v99.45zm-2.85-40.35c5.85 0 8.7 3.75 8.7 9.45 0 5.25-2.85 9-8.25 9h-4.65v-18.45zm-4.2-36.9h3.9c5.4 0 7.95 3 7.95 8.55 0 5.4-2.7 8.7-8.7 8.7h-3.15zm48.75 77.25h24v-99.45h-24zm-.15-105.9h24.3v-3.75h-24.3zm63.75 105.9v-37.35h4.2c6 0 8.1 3.3 8.1 9.9v27.45h24v-28.05c0-14.25-7.35-20.4-14.25-22.35v-.6c6.3-3.6 13.2-10.95 13.2-22.2 0-12.9-7.2-26.25-30.3-26.25h-28.95v99.45zm0-78.15h3.9c5.4 0 7.95 3 7.95 9s-2.4 10.2-8.4 10.2h-3.45zm48.45 78.15h22.8c24.15 0 36.75-7.65 36.75-36.45v-26.55c0-28.8-12.6-36.45-36.75-36.45h-22.8zm35.4-33.3c0 6.75-2.55 9.15-8.1 9.15h-3.3v-51.15h3.3c5.55 0 8.1 2.25 8.1 9.15zm73.65 33.3h17.25l12.75-56.7h.9v56.7h22.5v-99.45h-30.3l-14.1 52.65h-.9l-13.95-52.65h-30.3v99.45h22.5v-56.7h.9zm62.1 0h23.85l3.45-18.45h18.75l3.45 18.45h24.6l-22.8-99.45h-27.9zm37.35-69.45 4.95 30.15h-10.95l5.1-30.15zm87.45 69.45h24.3v-99.45h-22.2v46.35h-.9l-17.85-46.35h-25.35v99.45h22.35v-51.3h.9z" fill="#57b78c" fill-rule="evenodd" transform="translate(-36 -28)"/></svg>

<?xml version="1.0" encoding="UTF-8" standalone="no"?>
<svg width="506px" height="110px" viewBox="0 0 506 110" version="1.1" xmlns="http://www.w3.org/2000/svg" xmlns:xlink="http://www.w3.org/1999/xlink">
    <!-- Generator: Sketch 3.6.1 (26313) - http://www.bohemiancoding.com/sketch -->
    <title>BIRDMAN</title>
    <desc>Created with Sketch.</desc>
    <defs></defs>
    <g stroke="none" stroke-width="1" fill="none" fill-rule="evenodd">
        <g transform="translate(-36.000000, -28.000000)" fill="#57B78C">
            <path d="M67.4,138 C87.8,138 97.25,126 97.25,109.65 C97.25,99.3 90.95,90 82.55,87.3 L82.55,86.55 C87.2,84.15 95.45,76.95 95.45,64.05 C95.45,51 86.45,38.55 65.3,38.55 L36.5,38.55 L36.5,138 L67.4,138 Z M64.55,97.65 C70.4,97.65 73.25,101.4 73.25,107.1 C73.25,112.35 70.4,116.1 65,116.1 L60.35,116.1 L60.35,97.65 L64.55,97.65 Z M60.35,60.75 L64.25,60.75 C69.65,60.75 72.2,63.75 72.2,69.3 C72.2,74.7 69.5,78 63.5,78 L60.35,78 L60.35,60.75 Z M109.1,138 L133.1,138 L133.1,38.55 L109.1,38.55 L109.1,138 Z M108.95,32.1 L133.25,32.1 L133.25,28.35 L108.95,28.35 L108.95,32.1 Z M172.7,138 L172.7,100.65 L176.9,100.65 C182.9,100.65 185,103.95 185,110.55 L185,138 L209,138 L209,109.95 C209,95.7 201.65,89.55 194.75,87.6 L194.75,87 C201.05,83.4 207.95,76.05 207.95,64.8 C207.95,51.9 200.75,38.55 177.65,38.55 L148.7,38.55 L148.7,138 L172.7,138 Z M172.7,59.85 L176.6,59.85 C182,59.85 184.55,62.85 184.55,68.85 C184.55,74.85 182.15,79.05 176.15,79.05 L172.7,79.05 L172.7,59.85 Z M221.15,138 L243.95,138 C268.1,138 280.7,130.35 280.7,101.55 L280.7,75 C280.7,46.2 268.1,38.55 243.95,38.55 L221.15,38.55 L221.15,138 Z M256.55,104.7 C256.55,111.45 254,113.85 248.45,113.85 L245.15,113.85 L245.15,62.7 L248.45,62.7 C254,62.7 256.55,64.95 256.55,71.85 L256.55,104.7 Z M330.2,138 L347.45,138 L360.2,81.3 L361.1,81.3 L361.1,138 L383.6,138 L383.6,38.55 L353.3,38.55 L339.2,91.2 L338.3,91.2 L324.35,38.55 L294.05,38.55 L294.05,138 L316.55,138 L316.55,81.3 L317.45,81.3 L330.2,138 Z M392.3,138 L416.15,138 L419.6,119.55 L438.35,119.55 L441.8,138 L466.4,138 L443.6,38.55 L415.7,38.55 L392.3,138 Z M429.65,68.55 L434.6,98.7 L423.65,98.7 L428.75,68.55 L429.65,68.55 Z M517.1,138 L541.4,138 L541.4,38.55 L519.2,38.55 L519.2,84.9 L518.3,84.9 L500.45,38.55 L475.1,38.55 L475.1,138 L497.45,138 L497.45,86.7 L498.35,86.7 L517.1,138 Z"></path>
        </g>
    </g>
</svg>
